svg/color/tsmon.svg

<svg width="40" height="40" viewBox="0 0 40 40" fill="none" xmlns="http://www.w3.org/2000/svg">
<g clip-path="url(#clip0_820_3846)">
<path d="M20 0C31.0457 0 40 8.9543 40 20C40 31.0457 31.0457 40 20 40C8.95431 40 7.90517e-06 31.0457 0 20C6.58765e-07 8.95431 8.95431 1.97595e-06 20 0Z" fill="#FACCD0"/>
<path d="M26 6C30.4183 6 34 9.58172 34 14V26C34 30.4183 30.4183 34 26 34H14C9.58172 34 6 30.4183 6 26V14C6 9.58172 9.58172 6 14 6H26Z" fill="#E60012"/>
<path d="M28.3734 27.7848V27.4844L12.2562 27.4939V28.1001L28.3734 28.0888V27.7848ZM13.4679 18.6683V18.143L12.3675 18.1534C12.2276 18.1534 12.2355 18.1233 12.2355 17.9413L12.2473 17.2234L11.6913 17.2139C11.5206 17.5969 11.3086 17.8498 11.188 17.8996L10.1565 18.3545V18.6783L10.5426 18.6879C10.714 18.6879 10.7843 18.6783 10.7843 18.8805V21.0103C10.7843 21.657 11.1369 22.1318 12.0473 22.1531C12.7316 22.1722 13.147 21.8688 13.4385 21.5854L13.3586 21.3128C13.2363 21.3949 13.1373 21.4651 12.974 21.4651C12.1972 21.4651 12.218 20.8586 12.218 20.3238V18.8808C12.218 18.6684 12.2355 18.6684 12.3785 18.6684L13.4679 18.6683ZM15.6092 22.1021C16.4986 22.0606 17.3558 21.8691 17.3558 21.0108C17.3558 20.3865 16.6704 19.9911 15.9437 19.6782C15.4777 19.4862 14.8023 19.2042 14.8023 18.9808C14.8023 18.7192 15.3166 18.2134 15.8111 18.6174L16.6704 19.3353L17.0645 19.2533L16.8432 18.1844C16.6402 18.1939 16.4989 18.2046 15.7607 18.0819C14.8516 17.9515 13.7717 18.4066 13.7717 19.2533C13.7717 19.821 14.5908 20.2137 15.2377 20.4759C15.5903 20.6271 16.2172 20.8501 16.2172 21.1929C16.2172 21.5241 15.6303 21.6172 15.2977 21.6172C14.7321 21.6172 14.1051 20.8589 14.1051 20.8589H13.7329L13.9344 21.9915C14.0032 21.9299 14.2582 21.9388 14.3087 21.9607C14.4891 22.0297 15.1448 22.1321 15.6092 22.1021ZM17.881 21.0208C17.881 21.6472 17.7202 21.9797 17.2144 22.009L17.2268 22.1113C18.0722 22.1017 18.9338 22.1113 19.7594 22.0923L19.7689 22.0394C19.3873 22.0394 19.0928 21.6358 19.0928 21.1331V19.446C19.0928 19.0306 19.5978 18.7684 19.9411 18.7991C20.4745 18.8493 20.7689 19.1918 20.7689 19.4961V21.1523C20.7689 21.6574 20.6176 21.9698 20.224 21.9994V22.0925H22.5455V22.0213C22.2021 21.9796 21.9605 21.6657 21.9605 21.1925V19.4538C21.9605 19.0824 22.2832 18.8295 22.8597 18.8201C23.3648 18.8098 23.6671 19.1842 23.6671 19.538V21.1117C23.6671 21.6473 23.5059 21.9798 23.1029 22.0216V22.0927C23.9506 22.1021 24.6465 22.1021 25.4839 22.0927V22.0399C25.0407 22.0399 24.8898 21.7483 24.8898 21.1337V19.395C24.8898 18.8199 24.5766 18.1328 23.6979 18.1328C23.1029 18.1328 22.6657 18.4237 22.4166 18.5087C22.2444 18.5761 22.1228 18.6581 22.0818 18.6581C22.0029 18.6581 21.9125 18.6076 21.7997 18.4867C21.5873 18.2623 21.2048 18.1328 20.7997 18.1328C20.2843 18.1328 19.7691 18.4237 19.5257 18.5087C19.4972 18.5167 19.3162 18.6076 19.2942 18.6076C19.2547 18.6076 19.0928 18.6076 19.0928 18.5885C19.0928 18.1028 19.1235 18.3446 19.1037 18.0017H18.7694C18.67 18.0017 18.4962 18.1841 18.2947 18.2625C18.052 18.3658 17.5673 18.3551 17.3673 18.4061V18.7491L17.8903 18.8495V19.5166L17.881 21.0208ZM27.8547 18.0919C26.3602 18.0919 25.2188 18.8696 25.2188 20.2242C25.2188 21.3657 26.2583 22.1721 27.6524 22.1721C28.7132 22.1721 29.5912 21.405 29.8429 20.9201C29.8429 20.7698 29.692 20.7079 29.5514 20.7079C29.3081 21.0816 28.622 21.3657 28.3403 21.3538C26.6532 21.293 26.3806 20.6167 26.3602 19.9105C26.3287 19.1428 27.1579 18.4753 27.8648 18.5273C28.2774 18.5562 28.4202 19.2314 28.7821 19.4749C28.8956 19.5376 29.1569 19.5259 29.3293 19.4961C29.4605 19.4749 29.8121 19.3947 29.8121 19.0917C29.8121 18.8398 29.4992 18.5561 29.1983 18.3745C28.8956 18.2346 28.218 18.0919 27.8547 18.0919Z" fill="white"/>
</g>
<defs>
<clipPath id="clip0_820_3846">
<rect width="40" height="40" fill="white"/>
</clipPath>
</defs>
</svg>

<svg xmlns="http://www.w3.org/2000/svg" width="40" height="40" fill="none" viewBox="0 0 40 40"><g clip-path="url(#tsmon_svg-a)"><path fill="#FACCD0" d="M20 0c11.046 0 20 8.954 20 20s-8.954 20-20 20S0 31.046 0 20 8.954 0 20 0"/><path fill="#E60012" d="M26 6a8 8 0 0 1 8 8v12a8 8 0 0 1-8 8H14a8 8 0 0 1-8-8V14a8 8 0 0 1 8-8z"/><path fill="#fff" d="M28.373 27.785v-.3l-16.117.009v.606l16.117-.011zm-14.905-9.117v-.525l-1.1.01c-.14 0-.133-.03-.133-.212l.012-.718-.556-.01c-.17.384-.382.637-.503.687l-1.032.455v.323l.387.01c.171 0 .241-.01.241.193v2.13c0 .646.353 1.12 1.263 1.142.685.02 1.1-.284 1.391-.568l-.08-.272c-.122.082-.22.152-.384.152-.777 0-.756-.606-.756-1.141V18.88c0-.213.018-.213.16-.213zm2.141 3.434c.89-.041 1.747-.233 1.747-1.091 0-.624-.686-1.02-1.412-1.333-.466-.192-1.142-.474-1.142-.697 0-.262.515-.768 1.01-.364l.858.718.394-.082-.22-1.069c-.204.01-.345.02-1.083-.102-.91-.13-1.99.325-1.99 1.171 0 .568.82.96 1.467 1.223.352.151.98.374.98.717 0 .331-.588.424-.92.424-.566 0-1.193-.758-1.193-.758h-.372l.201 1.132c.07-.061.324-.052.375-.03.18.069.836.171 1.3.141m2.272-1.081c0 .626-.16.959-.667.988l.013.102c.845-.01 1.707 0 2.532-.019l.01-.053c-.382 0-.676-.403-.676-.906v-1.687c0-.415.505-.678.848-.647.534.05.828.393.828.697v1.656c0 .505-.151.818-.545.847v.094h2.322v-.072c-.344-.041-.585-.355-.585-.829v-1.738c0-.372.322-.625.899-.634.505-.01.807.364.807.718v1.574c0 .535-.161.868-.564.91v.07c.848.01 1.543.01 2.38 0v-.052c-.442 0-.593-.292-.593-.906v-1.739c0-.575-.313-1.262-1.192-1.262-.595 0-1.032.29-1.281.376-.173.067-.294.15-.335.15-.08 0-.17-.051-.282-.172-.213-.225-.595-.354-1-.354-.516 0-1.03.29-1.274.376-.029.008-.21.099-.232.099-.04 0-.201 0-.201-.02 0-.485.03-.243.01-.586h-.334c-.099 0-.273.182-.474.26-.243.104-.728.093-.928.144v.343l.523.1v.668zm9.974-2.93c-1.495 0-2.636.779-2.636 2.133 0 1.142 1.04 1.948 2.433 1.948 1.061 0 1.94-.767 2.19-1.252 0-.15-.15-.212-.29-.212-.244.374-.93.658-1.212.646-1.687-.061-1.96-.737-1.98-1.444-.031-.767.798-1.435 1.505-1.383.412.03.555.704.917.948.114.063.375.05.547.021.131-.021.483-.101.483-.404 0-.252-.313-.536-.614-.717-.302-.14-.98-.283-1.343-.283"/></g><defs><clipPath id="tsmon_svg-a"><path fill="#fff" d="M0 0h40v40H0z"/></clipPath></defs></svg>
